X:1
T:Title
%%score [ 1 2 3 4 ]
L:1/8
Q:1/4=120
M:4/4
K:Ab
V:1 treble nm="S."
V:2 treble nm="A."
V:3 treble-8 nm="T."
V:4 bass nm="B."
V:1
"^Ainsworth Psalter, 1612" c4 d2 B2 | d2"^Old Hundredth" (c3 B) A2- | A2 G2 A4 || %3
w: Shout to Je-|ho- vah, * all|* the earth,|
w: It's he that|made us, * and|* not we;|
w: Con- fess to|him, bless * ye|* his name.|
 e4"^Bourgeois / Dowland" E2 A2 |[M:4/4] G2 (F3 G) A2- | A2 A2 G4 || F4 G2 A2 | G2 (c3 B) A2 | %8
w: Serve ye Je-|ho- vah * with|* glad- ness;|Be- fore him|come with * sing-|
w: His folk, and|sheep of * his|* feed- ing.|O with con-|fess- ion * en-|
w: Be- cause Je-|ho- vah * he|* good is:|His mer- cy|ev- er * is|
 (e3 d) c4 || G4 A3 G | F2 (B3 A) A2- | A2 G2 A4 |] %12
w: ing * mirth|Know that Je-|ho- vah * he|* God is.|
w: ter * ye|his gates, his|court- yards * with|* prais- ing:|
w: the * same|and his faith|un- to * all|* ag- es.|
V:2
 E4 F2 E2 | (FG) A4 E2- | E2 E2 E4 || A4 A2 E2 |[M:4/4] E2 C(D- DE F2) | E4 E4 || C4 E2 E2 | %7
w: Shout to Je-|ho * vah, all|* the earth,|Serve ye Je-|ho- vah with * * *|glad- ness;|Be- fore him|
w: It's he that|made * us, and|* not we;|His folk, and|sheep of his * * *|feed- ing.|O with con-|
w: Con- fess to|him, * bless ye|* his name.|Be- cause Je-|ho- vah he * * *|good is:|His mer- cy|
 E2 E2 (D3 C) | B,4 F4 || B,3 E2 (F2 C) | D2 F2 E4- | E2 E2 E4 |] %12
w: come with sing *|ing mirth|Know that Je *|ho- vah he|* God is.|
w: fess- ion en *|ter ye|his gates, his *|court- yards with|* prais- ing:|
w: ev- er is *|the same|and his faith, *|un- to all|* a- ges.|
V:3
 A4 A2 G2 | F2 E2 A4 | B4 c4 || c4 c2 c2 |[M:4/4][K:treble-8] B2 A2 d4 | c4 B4 || A4 B2 c2 | %7
w: Shout to Je-|ho- vah, all|the earth,|Serve ye Je-|ho- vah with|glad- ness;|Be- fore him|
w: It's he that|made us, and|not we;|His folk, and|sheep of his|feed- ing.|O with con-|
w: Con- fess to|him, bless ye|his name.|Be- cause Je-|ho- vah he|good is:|His mer- cy|
 B2 A2 F4 | G4 A4 || e4 c2 A2 | B2 d2 c4 | B4 A4 |] %12
w: come with sing-|ing mirth|Know that Je-|ho- vah he|God is.|
w: fess- ion en-|ter ye|his gates, his|court- yards with|prais- ing:|
w: ev- er is|the same|and his faith|un- to all|ag- es.|
V:4
 A,,4 D,2 E,2 | B,,2 C,2 A,,4 | E,4 A,,4 || A,,4 A,2 A,2 |[M:4/4] E,2 F,2 D,4 | A,4 E,4 || %6
 F,4 E,2 C,2 | E,2 A,,2 D,4 |"^This edition produced by Andrew Sims 2015" E,4 F,4 || %9
 E,4 (A,>G,) (F,>E,) | (D,>C,) B,,2 (C,3 D,) | E,4 A,,4 |] %12

